X: 26293
T: Memories Of Ballymote
R: polka
M: 2/4
K: Gmajor
d>c|:BG D>G|Ec cA/B/|cE F>E|Dd d/e/d/c/|
BG D>G|Ec cA/B/|c/B/A/G/ F/D/E/F/|GB G2:|
|:g2 f2|c3 d|e2 d2|B3 c|d>e dc|
A3 B/A/|1 GA Bc|d2 ef:|2 Gg f/g/a|g2 d>c||

